src/images/sponsors/ir-soluciones.svg

<?xml version="1.0" encoding="UTF-8" standalone="no"?>
<svg xmlns="http://www.w3.org/2000/svg" width="247" height="45" viewBox="0 0 247 45" fill="none">
  <g clip-path="url(#clip0_5_641)">
    <path d="M0 45.5H12.5354V2.1713H0V45.5ZM31.8168 12.7647H40.4925V0.522739C40.4925 0.522739 39.9404 0.5 39.6329 0.5C28.3584 0.5 19.2814 9.62961 19.2814 20.8881V45.5H31.8168V12.7647Z" fill="#000000"></path>
    <path d="M45.0239 44.8889C43.8854 44.4824 42.9205 44.0106 42.132 43.4734C41.3436 42.9362 40.7487 42.4729 40.353 42.0863L42.707 38.2918C43.1311 38.6613 43.6577 39.0763 44.2867 39.5367C44.9158 40 45.6302 40.4008 46.4357 40.7391C47.2384 41.0801 48.1094 41.2478 49.043 41.2478C50.025 41.2478 50.8362 41.0176 51.4738 40.5543C52.1114 40.091 52.4302 39.3975 52.4302 38.4737C52.4302 37.7375 52.2224 37.135 51.8068 36.6688C51.3913 36.2027 50.785 35.7706 49.9852 35.3727C49.1853 34.9748 48.2147 34.5314 47.0705 34.0425C46.2308 33.6645 45.4452 33.2125 44.7165 32.6839C43.9879 32.1552 43.4043 31.5157 42.9575 30.7653C42.5134 30.0149 42.2914 29.1338 42.2914 28.1247C42.2914 26.9338 42.6045 25.8167 43.2336 24.7679C43.8626 23.7191 44.7421 22.8721 45.8778 22.2269C47.0107 21.5817 48.3314 21.2576 49.8343 21.2576C50.6854 21.2576 51.5364 21.3713 52.3875 21.5987C53.2386 21.8261 54.0327 22.1245 54.7699 22.4912C55.5071 22.8607 56.1305 23.2615 56.64 23.6964L54.7272 27.2919C54.1209 26.7831 53.3951 26.3426 52.5497 25.9759C51.7044 25.6093 50.8334 25.4245 49.9339 25.4245C48.932 25.4245 48.1549 25.6803 47.6027 26.1891C47.0506 26.6979 46.7745 27.3118 46.7745 28.0281C46.7745 28.5568 46.9196 28.9831 47.2071 29.31C47.4946 29.6369 47.8988 29.9154 48.4197 30.1513C48.9405 30.3872 49.5411 30.6459 50.2214 30.9301C51.6873 31.5327 52.9596 32.1495 54.0441 32.7777C55.1257 33.4058 55.9626 34.1562 56.5546 35.0288C57.1438 35.9014 57.4398 37.0184 57.4398 38.3771C57.4398 39.8778 57.0812 41.1597 56.3696 42.2199C55.6551 43.283 54.6618 44.093 53.3837 44.6558C52.1086 45.2186 50.6199 45.4971 48.9178 45.4971C47.4633 45.4971 46.1653 45.2953 45.0268 44.8889H45.0239Z" fill="#000000"></path>
    <path d="M67.6469 44.5648C66.2209 43.9424 64.9685 43.0755 63.8897 41.9669C62.8109 40.8584 61.9684 39.5708 61.3592 38.1014C60.7501 36.6347 60.4456 35.06 60.4456 33.3802C60.4456 31.7004 60.7501 30.1257 61.3592 28.6591C61.9684 27.1924 62.8137 25.902 63.8897 24.7935C64.9685 23.685 66.2209 22.8181 67.6469 22.1956C69.0729 21.5731 70.6043 21.2605 72.2409 21.2605C73.8776 21.2605 75.4061 21.5731 76.835 22.1956C78.261 22.8181 79.5134 23.685 80.5922 24.7935C81.671 25.902 82.5135 27.1924 83.1226 28.6591C83.7318 30.1257 84.0363 31.7004 84.0363 33.3802C84.0363 35.06 83.7318 36.6347 83.1226 38.1014C82.5135 39.568 81.6681 40.8584 80.5922 41.9669C79.5134 43.0755 78.261 43.9424 76.835 44.5648C75.409 45.1873 73.8776 45.5 72.2409 45.5C70.6043 45.5 69.0758 45.1873 67.6469 44.5648ZM75.7847 40.091C76.8151 39.4316 77.6234 38.5192 78.2098 37.3595C78.7961 36.1998 79.0893 34.8725 79.0893 33.3802C79.0893 31.888 78.7961 30.5635 78.2098 29.4009C77.6234 28.2413 76.8151 27.3289 75.7847 26.6694C74.7543 26.01 73.573 25.6775 72.2409 25.6775C70.9088 25.6775 69.739 26.0072 68.7029 26.6694C67.6668 27.3289 66.8584 28.2413 66.2721 29.4009C65.6857 30.5635 65.3926 31.888 65.3926 33.3802C65.3926 34.8725 65.6857 36.197 66.2721 37.3595C66.8584 38.522 67.6697 39.4316 68.7029 40.091C69.739 40.7504 70.9174 41.083 72.2409 41.083C73.5645 41.083 74.7543 40.7533 75.7847 40.091Z" fill="#000000"></path>
    <path d="M88.7017 21.684H93.2957V41.0233H101.747V45.0452H88.7017V21.684Z" fill="#000000"></path>
    <path d="M107.345 43.2915C105.843 41.8192 105.091 39.6448 105.091 36.7655V21.6868H109.685V35.4495C109.685 37.422 110.024 38.8404 110.698 39.7044C111.373 40.5685 112.472 41.0006 113.995 41.0006C115.517 41.0006 116.616 40.5685 117.291 39.7044C117.965 38.8404 118.304 37.422 118.304 35.4495V21.6868H122.898V36.7655C122.898 39.6448 122.149 41.8192 120.649 43.2915C119.152 44.7638 116.932 45.5 113.992 45.5C111.051 45.5 108.845 44.7638 107.343 43.2915H107.345Z" fill="#000000"></path>
    <path d="M134.454 44.5648C132.903 43.9424 131.54 43.0755 130.364 41.9669C129.186 40.8584 128.266 39.5709 127.6 38.1099C126.934 36.6461 126.601 35.0743 126.601 33.3944C126.601 31.7146 126.934 30.1257 127.6 28.6591C128.266 27.1924 129.188 25.902 130.364 24.7935C131.54 23.685 132.9 22.8181 134.449 22.1956C135.994 21.5731 137.645 21.2605 139.404 21.2605C140.841 21.2605 142.211 21.4623 143.517 21.8687C144.821 22.2752 145.931 22.8095 146.85 23.469L144.866 27.363C144.232 26.8627 143.46 26.4705 142.549 26.1891C141.638 25.9049 140.691 25.7627 139.706 25.7627C138.166 25.7627 136.78 26.0981 135.55 26.7689C134.32 27.4397 133.353 28.3493 132.644 29.5004C131.935 30.6516 131.579 31.9448 131.579 33.3802C131.579 34.8156 131.935 36.1089 132.644 37.26C133.353 38.4112 134.32 39.3207 135.55 39.9915C136.78 40.6623 138.163 40.9977 139.706 40.9977C140.688 40.9977 141.636 40.8556 142.549 40.5714C143.46 40.2871 144.234 39.8977 144.866 39.3975L146.85 43.2915C145.962 43.9225 144.869 44.4512 143.574 44.869C142.279 45.2896 140.898 45.5 139.435 45.5C137.668 45.5 136.008 45.1873 134.46 44.5648H134.454Z" fill="#000000"></path>
    <path d="M150.573 21.684H155.167V45.0452H150.573V21.684Z" fill="#000000"></path>
    <path d="M167.048 44.5648C165.622 43.9424 164.37 43.0755 163.291 41.9669C162.212 40.8584 161.37 39.5708 160.76 38.1014C160.151 36.6347 159.847 35.06 159.847 33.3802C159.847 31.7004 160.151 30.1257 160.76 28.6591C161.37 27.1924 162.215 25.902 163.291 24.7935C164.37 23.685 165.622 22.8181 167.048 22.1956C168.474 21.5731 170.006 21.2605 171.642 21.2605C173.279 21.2605 174.807 21.5731 176.236 22.1956C177.662 22.8181 178.915 23.685 179.993 24.7935C181.072 25.902 181.915 27.1924 182.524 28.6591C183.133 30.1257 183.438 31.7004 183.438 33.3802C183.438 35.06 183.133 36.6347 182.524 38.1014C181.915 39.568 181.069 40.8584 179.993 41.9669C178.915 43.0755 177.662 43.9424 176.236 44.5648C174.81 45.1873 173.279 45.5 171.642 45.5C170.006 45.5 168.477 45.1873 167.048 44.5648ZM175.186 40.091C176.216 39.4316 177.025 38.5192 177.611 37.3595C178.197 36.1998 178.491 34.8725 178.491 33.3802C178.491 31.888 178.197 30.5635 177.611 29.4009C177.025 28.2413 176.216 27.3289 175.186 26.6694C174.156 26.01 172.974 25.6775 171.642 25.6775C170.31 25.6775 169.14 26.0072 168.104 26.6694C167.068 27.3317 166.26 28.2413 165.673 29.4009C165.087 30.5635 164.794 31.888 164.794 33.3802C164.794 34.8725 165.087 36.197 165.673 37.3595C166.26 38.522 167.071 39.4316 168.104 40.091C169.14 40.7504 170.319 41.083 171.642 41.083C172.966 41.083 174.156 40.7533 175.186 40.091Z" fill="#000000"></path>
    <path d="M188.103 21.684H192.697L202.779 37.3993V21.684H207.373V45.0452H202.779L192.697 29.3299V45.0452H188.103V21.684Z" fill="#000000"></path>
    <path d="M213.751 21.684H226.768V25.7059H218.346V31.3281H226.426V35.35H218.346V41.0261H226.768V45.0481H213.751V21.684Z" fill="#000000"></path>
    <path d="M234.587 44.8889C233.448 44.4824 232.483 44.0106 231.695 43.4734C230.907 42.9362 230.312 42.4729 229.916 42.0863L232.27 38.2918C232.694 38.6613 233.221 39.0763 233.85 39.5367C234.479 40 235.193 40.4008 235.999 40.7391C236.801 41.0801 237.672 41.2478 238.606 41.2478C239.588 41.2478 240.399 41.0176 241.037 40.5543C241.674 40.091 241.993 39.3975 241.993 38.4737C241.993 37.7375 241.785 37.135 241.37 36.6688C240.954 36.2027 240.348 35.7706 239.548 35.3727C238.748 34.9748 237.778 34.5314 236.633 34.0425C235.794 33.6645 235.008 33.2125 234.28 32.6839C233.551 32.1552 232.967 31.5157 232.52 30.7653C232.076 30.0149 231.854 29.1338 231.854 28.1247C231.854 26.9338 232.167 25.8167 232.797 24.7679C233.426 23.7191 234.305 22.8721 235.441 22.2269C236.574 21.5817 237.894 21.2576 239.397 21.2576C240.248 21.2576 241.099 21.3713 241.951 21.5987C242.802 21.8261 243.596 22.1245 244.333 22.4912C245.07 22.8607 245.693 23.2615 246.203 23.6964L244.29 27.2919C243.684 26.7831 242.958 26.3426 242.113 25.9759C241.267 25.6093 240.396 25.4245 239.497 25.4245C238.495 25.4245 237.718 25.6803 237.166 26.1891C236.614 26.6979 236.337 27.3118 236.337 28.0281C236.337 28.5568 236.483 28.9831 236.77 29.31C237.058 29.6369 237.462 29.9154 237.983 30.1513C238.504 30.3872 239.104 30.6459 239.784 30.9301C241.25 31.5327 242.523 32.1495 243.607 32.7777C244.689 33.4058 245.526 34.1562 246.118 35.0288C246.707 35.9014 247.003 37.0184 247.003 38.3771C247.003 39.8778 246.644 41.1597 245.933 42.2199C245.218 43.283 244.225 44.093 242.947 44.6558C241.672 45.2186 240.183 45.4971 238.481 45.4971C237.026 45.4971 235.728 45.2953 234.59 44.8889H234.587Z" fill="#000000"></path>
  </g>
  <defs>
    <clipPath id="clip0_5_641">
      <rect width="247" height="45" fill="white" transform="translate(0 0.5)"></rect>
    </clipPath>
  </defs>
</svg>

<svg xmlns="http://www.w3.org/2000/svg" width="247" height="45" fill="none"><g fill="#000" clip-path="url(#a)"><path d="M0 45.5h12.535V2.171H0V45.5Zm31.817-32.735h8.675V.523S39.94.5 39.633.5c-11.274 0-20.35 9.13-20.35 20.388V45.5h12.535V12.765ZM45.024 44.889c-1.139-.407-2.104-.878-2.892-1.416-.788-.537-1.383-1-1.779-1.387l2.354-3.794c.424.37.95.784 1.58 1.245.629.463 1.343.864 2.149 1.202a6.604 6.604 0 0 0 2.607.509c.982 0 1.793-.23 2.43-.694.638-.463.957-1.157.957-2.08 0-.736-.208-1.339-.623-1.805-.416-.466-1.022-.898-1.822-1.296s-1.77-.842-2.914-1.33c-.84-.379-1.626-.83-2.354-1.36a6.383 6.383 0 0 1-1.76-1.918c-.444-.75-.666-1.631-.666-2.64 0-1.191.314-2.308.943-3.357.629-1.049 1.508-1.896 2.644-2.541 1.133-.645 2.453-.97 3.956-.97.851 0 1.702.114 2.553.342a12.69 12.69 0 0 1 2.383.892c.737.37 1.36.77 1.87 1.205l-1.913 3.596c-.606-.509-1.332-.95-2.177-1.316a6.51 6.51 0 0 0-2.616-.552c-1.002 0-1.78.256-2.331.765-.552.509-.828 1.123-.828 1.84 0 .528.145.954.432 1.281.288.327.692.605 1.213.841a67.5 67.5 0 0 0 1.801.78c1.466.602 2.739 1.219 3.823 1.847 1.082.628 1.919 1.378 2.51 2.25.59.873.886 1.99.886 3.35 0 1.5-.359 2.782-1.07 3.842-.715 1.063-1.708 1.873-2.986 2.436-1.275.563-2.764.841-4.466.841-1.455 0-2.753-.202-3.891-.608h-.003ZM67.647 44.565a11.755 11.755 0 0 1-3.757-2.598 12.158 12.158 0 0 1-2.53-3.866c-.61-1.466-.914-3.041-.914-4.72 0-1.68.304-3.255.913-4.722a12.236 12.236 0 0 1 2.53-3.865 11.758 11.758 0 0 1 3.758-2.598c1.426-.623 2.957-.936 4.594-.936 1.637 0 3.165.313 4.594.936a11.758 11.758 0 0 1 3.757 2.598 12.187 12.187 0 0 1 2.53 3.865c.61 1.467.914 3.041.914 4.721 0 1.68-.304 3.255-.913 4.721a12.237 12.237 0 0 1-2.53 3.866 11.755 11.755 0 0 1-3.758 2.598c-1.426.622-2.957.935-4.594.935-1.637 0-3.165-.313-4.594-.935Zm8.138-4.474c1.03-.66 1.838-1.572 2.425-2.732.586-1.16.88-2.486.88-3.979 0-1.492-.294-2.817-.88-3.98-.587-1.159-1.395-2.071-2.425-2.73-1.03-.66-2.212-.993-3.544-.993-1.332 0-2.502.33-3.538.992-1.036.66-1.845 1.572-2.43 2.732-.587 1.163-.88 2.487-.88 3.98 0 1.492.293 2.816.88 3.978.585 1.163 1.397 2.073 2.43 2.732 1.036.66 2.214.992 3.538.992 1.323 0 2.513-.33 3.544-.992ZM88.702 21.684h4.594v19.34h8.451v4.021H88.702V21.684ZM107.345 43.291c-1.502-1.472-2.254-3.646-2.254-6.525v-15.08h4.594V35.45c0 1.972.339 3.39 1.013 4.254.675.864 1.774 1.297 3.297 1.297 1.522 0 2.621-.432 3.296-1.297.674-.864 1.013-2.282 1.013-4.255V21.688h4.594v15.079c0 2.879-.749 5.053-2.249 6.526-1.497 1.472-3.717 2.208-6.657 2.208-2.941 0-5.147-.736-6.649-2.209h.002ZM134.454 44.565a12.912 12.912 0 0 1-4.09-2.598 12.193 12.193 0 0 1-2.764-3.857c-.666-1.464-.999-3.036-.999-4.716 0-1.68.333-3.268.999-4.735a12.196 12.196 0 0 1 2.764-3.865 12.915 12.915 0 0 1 4.085-2.598c1.545-.623 3.196-.936 4.955-.936 1.437 0 2.807.202 4.113.609 1.304.406 2.414.94 3.333 1.6l-1.984 3.894c-.634-.5-1.406-.892-2.317-1.174a9.487 9.487 0 0 0-2.843-.426c-1.54 0-2.926.335-4.156 1.006-1.23.67-2.197 1.58-2.906 2.731-.709 1.152-1.065 2.445-1.065 3.88 0 1.436.356 2.729 1.065 3.88.709 1.151 1.676 2.06 2.906 2.732 1.23.67 2.613 1.006 4.156 1.006.982 0 1.93-.142 2.843-.427.911-.284 1.685-.673 2.317-1.173l1.984 3.893c-.888.632-1.981 1.16-3.276 1.578-1.295.42-2.676.631-4.139.631-1.767 0-3.427-.313-4.975-.935h-.006ZM150.573 21.684h4.594v23.361h-4.594V21.684ZM167.048 44.565a11.756 11.756 0 0 1-3.757-2.598 12.17 12.17 0 0 1-2.531-3.866c-.609-1.466-.913-3.041-.913-4.72 0-1.68.304-3.255.913-4.722a12.251 12.251 0 0 1 2.531-3.865 11.76 11.76 0 0 1 3.757-2.598c1.426-.623 2.958-.936 4.594-.936 1.637 0 3.165.313 4.594.936a11.749 11.749 0 0 1 3.757 2.598 12.183 12.183 0 0 1 2.531 3.865c.609 1.467.914 3.041.914 4.721 0 1.68-.305 3.255-.914 4.721a12.235 12.235 0 0 1-2.531 3.866 11.745 11.745 0 0 1-3.757 2.598c-1.426.622-2.957.935-4.594.935-1.636 0-3.165-.313-4.594-.935Zm8.138-4.474c1.03-.66 1.839-1.572 2.425-2.732.586-1.16.88-2.486.88-3.979 0-1.492-.294-2.817-.88-3.98-.586-1.159-1.395-2.071-2.425-2.73-1.03-.66-2.212-.993-3.544-.993-1.332 0-2.502.33-3.538.992-1.036.663-1.844 1.572-2.431 2.732-.586 1.163-.879 2.487-.879 3.98 0 1.492.293 2.816.879 3.978.587 1.163 1.398 2.073 2.431 2.732 1.036.66 2.215.992 3.538.992 1.324 0 2.514-.33 3.544-.992ZM188.103 21.684h4.594l10.082 15.715V21.684h4.594v23.361h-4.594L192.697 29.33v15.715h-4.594V21.684ZM213.751 21.684h13.017v4.022h-8.422v5.622h8.08v4.022h-8.08v5.676h8.422v4.022h-13.017V21.684ZM234.587 44.889c-1.139-.407-2.104-.878-2.892-1.416-.788-.537-1.383-1-1.779-1.387l2.354-3.794c.424.37.951.784 1.58 1.245.629.463 1.343.864 2.149 1.202a6.599 6.599 0 0 0 2.607.509c.982 0 1.793-.23 2.431-.694.637-.463.956-1.157.956-2.08 0-.736-.208-1.339-.623-1.805-.416-.466-1.022-.898-1.822-1.296s-1.77-.842-2.915-1.33a13.27 13.27 0 0 1-2.353-1.36 6.384 6.384 0 0 1-1.76-1.918c-.444-.75-.666-1.631-.666-2.64 0-1.191.313-2.308.943-3.357.629-1.049 1.508-1.896 2.644-2.541 1.133-.645 2.453-.97 3.956-.97.851 0 1.702.114 2.554.342.851.227 1.645.526 2.382.892.737.37 1.36.77 1.87 1.205l-1.913 3.596c-.606-.509-1.332-.95-2.177-1.316a6.514 6.514 0 0 0-2.616-.552c-1.002 0-1.779.256-2.331.765s-.829 1.123-.829 1.84c0 .528.146.954.433 1.281.288.327.692.605 1.213.841.521.236 1.121.495 1.801.78 1.466.602 2.739 1.219 3.823 1.847 1.082.628 1.919 1.378 2.511 2.25.589.873.885 1.99.885 3.35 0 1.5-.359 2.782-1.07 3.842-.715 1.063-1.708 1.873-2.986 2.436-1.275.563-2.764.841-4.466.841-1.455 0-2.753-.202-3.891-.608h-.003Z"/></g><defs><clipPath id="a"><path fill="#fff" d="M0 .5h247v45H0z"/></clipPath></defs></svg>
